build/svg/cmd/sc_selectcolumn.svg

<?xml version="1.0" encoding="UTF-8" standalone="no"?>
<svg
   xmlns:dc="http://purl.org/dc/elements/1.1/"
   xmlns:cc="http://creativecommons.org/ns#"
   xmlns:rdf="http://www.w3.org/1999/02/22-rdf-syntax-ns#"
   xmlns:svg="http://www.w3.org/2000/svg"
   xmlns="http://www.w3.org/2000/svg"
   xmlns:sodipodi="http://sodipodi.sourceforge.net/DTD/sodipodi-0.dtd"
   xmlns:inkscape="http://www.inkscape.org/namespaces/inkscape"
   viewBox="0 0 16 16"
   version="1.1"
   id="svg6"
   sodipodi:docname="sc_selectcolumn.svg"
   inkscape:version="0.92.4 (5da689c313, 2019-01-14)"
   inkscape:export-filename="/home/jupiter007/Libreoffice yaru theme fullcolor/build/cmd/sc_selectcolumn.png"
   inkscape:export-xdpi="95"
   inkscape:export-ydpi="95">
  <metadata
     id="metadata12">
    <rdf:RDF>
      <cc:Work
         rdf:about="">
        <dc:format>image/svg+xml</dc:format>
        <dc:type
           rdf:resource="http://purl.org/dc/dcmitype/StillImage" />
      </cc:Work>
    </rdf:RDF>
  </metadata>
  <defs
     id="defs10" />
  <sodipodi:namedview
     pagecolor="#ffffff"
     bordercolor="#666666"
     borderopacity="1"
     objecttolerance="10"
     gridtolerance="10"
     guidetolerance="10"
     inkscape:pageopacity="0"
     inkscape:pageshadow="2"
     inkscape:window-width="1920"
     inkscape:window-height="1011"
     id="namedview8"
     showgrid="true"
     inkscape:zoom="29.5"
     inkscape:cx="-0.59112073"
     inkscape:cy="8.276693"
     inkscape:window-x="0"
     inkscape:window-y="32"
     inkscape:window-maximized="1"
     inkscape:current-layer="svg6">
    <inkscape:grid
       type="xygrid"
       id="grid822" />
  </sodipodi:namedview>
  <rect
     style="opacity:1;fill:#ffffff;fill-opacity:1;stroke:none;stroke-width:2;stroke-linecap:round;stroke-linejoin:round;stroke-miterlimit:4;stroke-dasharray:none;stroke-opacity:1"
     id="rect814"
     width="10"
     height="10"
     x="3"
     y="3" />
  <path
     d="m 2,4 v 8 c 0,2 1,2 3,2 h 6 c 2,0 3,0 3,-2 V 4 C 14,2 13,2 11,2 H 5 C 3,2 2,2 2,4 Z M 3,4 C 3,3 4,3 5,3 h 6 c 1,0 2,0 2,1 v 2 h -2 v 1 h 2 v 2 h -2 v 1 h 2 v 2 c 0,1 -1,1 -2,1 H 5 C 4,13 3,13 3,12 V 10 H 5 V 9 H 3 V 7 H 5 V 6 H 3 Z"
     id="path2"
     inkscape:connector-curvature="0"
     style="fill:#6d6d6d;fill-opacity:1"
     sodipodi:nodetypes="cccccccccccccccccccccccccccccccccc" />
  <path
     d="m5 3v10h1.71875l3.28125-3.28125v3.28125h1v-4.28125-4-1.71875h-1v1.28125l-4 4v-2.5625l2.71875-2.71875h-1.4375l-1.28125 1.28125v-1.28125zm5 2.71875v2.5625l-4 4v-2.5625z"
     fill="#762572"
     id="path4" />
</svg>

<svg xmlns="http://www.w3.org/2000/svg" viewBox="0 0 16 16"><path fill="#fff" d="M3 3h10v10H3z"/><path d="M2 4v8c0 2 1 2 3 2h6c2 0 3 0 3-2V4c0-2-1-2-3-2H5C3 2 2 2 2 4zm1 0c0-1 1-1 2-1h6c1 0 2 0 2 1v2h-2v1h2v2h-2v1h2v2c0 1-1 1-2 1H5c-1 0-2 0-2-1v-2h2V9H3V7h2V6H3z" fill="#6d6d6d"/><path d="M5 3v10h1.719L10 9.719V13h1V3h-1v1.281l-4 4V5.72L8.719 3H7.28L6 4.281V3zm5 2.719V8.28l-4 4V9.72z" fill="#762572"/></svg>
